svgs/light/square-up-right.svg

<svg xmlns="http://www.w3.org/2000/svg" viewBox="0 0 448 512"><!--! Font Awesome Pro 6.3.0 by @fontawesome - https://fontawesome.com License - https://fontawesome.com/license (Commercial License) Copyright 2023 Fonticons, Inc. --><path d="M384 32H64C28.65 32 0 60.65 0 96v320c0 35.35 28.65 64 64 64h320c35.35 0 64-28.65 64-64V96C448 60.65 419.3 32 384 32zM384 64c17.64 0 32 14.36 32 32v320c0 17.64-14.36 32-32 32H64c-17.64 0-32-14.36-32-32V96c0-17.64 14.36-32 32-32H384zM163.1 144.8c-16.16 .0773-30.6 9.745-36.8 24.69c-6.209 15-2.806 32.11 8.684 43.6l20.29 20.29L105.2 284.3c-15.6 15.6-15.6 40.97 0 56.57l33.94 33.94c15.6 15.6 40.97 15.6 56.57 0l50.91-50.91l20.29 20.29c11.49 11.49 28.59 14.89 43.6 8.684c14.98-6.231 24.67-20.74 24.68-36.97l2.331-133.1c.0221-21.94-18.59-40.27-39.98-40.27L163.1 144.8zM164.1 176.8l133.7-2.353c2.253 0 7.754 2.094 7.723 8.01l-2.331 133.1c-.0178 8.201-9.132 10.47-13.67 5.933l-42.91-42.91l-73.54 73.54c-3.116 3.116-8.198 3.117-11.31 .0013L127.8 318.2C124.7 315.1 124.7 310 127.8 306.9l73.54-73.54L158.5 190.5C153.2 185.2 157.3 176.8 164.1 176.8z"/></svg>

<svg xmlns="http://www.w3.org/2000/svg" viewBox="0 0 448 512"><!-- Font Awesome Pro 6.0.0-alpha2 by @fontawesome - https://fontawesome.com License - https://fontawesome.com/license (Commercial License) --><path d="M384 32H64C28.654 32 0 60.654 0 96V416C0 451.346 28.654 480 64 480H384C419.346 480 448 451.346 448 416V96C448 60.654 419.346 32 384 32ZM384 64C401.645 64 416 78.355 416 96V416C416 433.645 401.645 448 384 448H64C46.355 448 32 433.645 32 416V96C32 78.355 46.355 64 64 64H384ZM163.951 144.796C147.787 144.874 133.347 154.541 127.148 169.49C120.939 184.494 124.342 201.597 135.833 213.087L156.118 233.373L105.206 284.284C89.606 299.885 89.606 325.252 105.206 340.853L139.147 374.794C154.748 390.394 180.115 390.394 195.716 374.794L246.627 323.882L266.913 344.167C278.403 355.658 295.506 359.061 310.51 352.852C325.492 346.62 335.181 332.113 335.193 315.883L337.524 182.737C337.546 160.795 318.929 142.465 297.539 142.465L163.951 144.796ZM164.117 176.804L164.393 176.793L297.815 174.451C300.068 174.451 305.569 176.545 305.538 182.461L303.207 315.607C303.189 323.808 294.075 326.075 289.54 321.54L246.627 278.627L173.088 352.167C169.973 355.282 164.89 355.282 161.775 352.167L127.833 318.225C124.718 315.11 124.718 310.027 127.833 306.912L201.373 233.373L158.46 190.46C153.204 185.204 157.257 176.804 164.117 176.804Z"/></svg>
